X: 227
T: Nher  cai shiliu
%%abc-version 2.0
%%abcx-abcm2ps-target-version 5.9.1 (29 Sep 2008)
%%abc-creator hum2abc beta
%%abcx-conversion-date 2013/10/02 07:52:29
%%abc-edited-by Helmut Schaffrath
%%humdrum-veritas 224804732
%%humdrum-veritas-data 1093221585
%%continueall 1
%%barnumbers 0
L: 1/16
M: 2/4
K: A
B2 B e B A F A [I:setbarnb 1]| 
B8 | 
e2 B c B A F2 | 
E8 | 
F AB4B e | 
B A G F2< E2 F | 
A2 A F E F E C | 
B,8 |]  



